X:23
T:Lost Indian
M:2/2
L:1/8
K:D
AB|:"D"d2 df edBc|dedB A2AB|d2 de fgaf|"Bm"a(b b)a b2 ab|
"D"d'bad' bafg|abaf edde|"A"fedf edBc|1"D"d2 dd d2 AB:|2"D"d2 dd d2 ag|
|
"D"fefg a2 fg|abag fddc|defg aefa|"G"a(bb)a  b2 be|
"D"fefg a2 fg|abaf eddd|"A"fafe dBAF|"D"D2 DF D2 ag||
fefg a2 fg|abaf eddc|defg aefa|"G"b6 ab|
"D"d'2 d'2 d'2 d'2|d' a2 f edBA|a =f2 ^f "A"edBA|"D"d6||
